X: 4
T: The Kesh
R: jig
M: 6/8
L: 1/8
K: Dmaj
A, |:"D" D3 DEF | "A" E3 EFA | "D" BAA "G" dAA | "D" BAF "A" AFE |
"D" D3 DEF | "A" E3 EFA | "D" BAA "G" dAF | "A" EDC "D" D3 :|
|: "D" {E}F3 AFA | "G" BdB BAF | "D" {E}F3 AFD | "A" EFE EDE |
"D" {E}F3 AFA | "G" BdB "D" B2B | "D" dcd "G" ede | "A" fdc "D" d3 :|


Tune 55	Setting 23499

